X:0141
T:"Sloan's Lamentation"                    (air)             0141
C:Unattributed
B:O'Neill's Music Of Ireland (The 1850)   Lyon & Healy, Chicago   1903 ed.
C:slow
N:Note:  Replaced DC & FIne:  I think O'Neill was saving space.
Z:FROM O'NEILL'S TO NOTEWORTHY, FROM NOTEWORTHY TO ABC, MIDI AND .TXT BY VINCE BRENNAN 6-21-03 (HTTP://WWW.SOSYOURMOM.COM)
Q:1/4=70
I:abc2nwc
M:2/4
L:1/16
K:D
"_vb"(fg)|a2-~ab f2 ({c'}b^a)|b2B2 (d3e)|{de}f2 (ed) .B2(dc)|B6:|
f2|(b3c') {bc'}.d'2 (c'b)|c'2a2 f3f|~(b3c') {bc'}d'2 ba|d'6(fg)|
a2-~ab f2 ({c'}b^a)|b2B2 (d3e)|{de}f2 (ed) .B2(dc)|B6|]
